src/images/svg/symbols/btc-xag.svg

<svg width="32" height="32" viewBox="0 0 32 32" fill="none" xmlns="http://www.w3.org/2000/svg">
<path d="M2 11C2 6.02944 6.02944 2 11 2C15.9706 2 20 6.02944 20 11C20 15.9706 15.9706 20 11 20C6.02944 20 2 15.9706 2 11Z" fill="#F7931A"/>
<path d="M15.0439 9.88625C15.2205 8.70725 14.3222 8.07331 13.0948 7.65031L13.4931 6.05281L12.5211 5.81094L12.1329 7.36625C11.8776 7.30212 11.6154 7.2425 11.3539 7.18287L11.7448 5.61744L10.7728 5.375L10.3746 6.97194C10.1631 6.92356 9.95494 6.87631 9.75357 6.82569L9.75469 6.82062L8.41369 6.48594L8.15494 7.52431C8.15494 7.52431 8.87663 7.68969 8.86144 7.69981C9.25519 7.79825 9.32607 8.05869 9.31425 8.26569L8.86088 10.0854C8.88788 10.0921 8.92275 10.1023 8.96213 10.1174L8.85919 10.0921L8.22357 12.6414C8.17519 12.7606 8.05313 12.9401 7.7775 12.872C7.78763 12.8861 7.071 12.6959 7.071 12.6959L6.58838 13.8086L7.854 14.1241C8.08913 14.1832 8.31975 14.2451 8.54644 14.303L8.14425 15.9185L9.11569 16.1604L9.51394 14.5629C9.77944 14.6343 10.0371 14.7007 10.2891 14.7637L9.89194 16.3544L10.8639 16.5963L11.2661 14.9842C12.9244 15.2981 14.1709 15.1715 14.6957 13.6719C15.1187 12.4648 14.6749 11.7678 13.8024 11.3139C14.4381 11.1676 14.9162 10.7497 15.0439 9.88625ZM12.822 13.0014C12.5222 14.2091 10.4888 13.556 9.8295 13.3923L10.3639 11.252C11.0231 11.4168 13.1364 11.7425 12.822 13.0014ZM13.1229 9.86881C12.849 10.9674 11.157 10.4088 10.6086 10.2721L11.0923 8.3315C11.6408 8.46819 13.4087 8.723 13.1229 9.86881Z" fill="white"/>
<circle cx="21" cy="21" r="9" fill="#DFDFDF"/>
<path d="M26.7381 14.0661C26.3473 13.7424 25.9288 13.4511 25.4866 13.1963L13.1963 25.4866C13.4511 25.9288 13.7424 26.3473 14.0661 26.7381L26.7381 14.0661Z" fill="#F8F8F8"/>
<path d="M16.3435 28.7033C15.6936 28.3096 15.0975 27.836 14.5688 27.296L27.296 14.5688C27.836 15.0975 28.3096 15.6936 28.7033 16.3435L16.3435 28.7033Z" fill="#F8F8F8"/>
<path d="M18.9728 29.7708C18.6916 29.706 18.4155 29.6281 18.1451 29.5378L29.5378 18.1451C29.6281 18.4155 29.706 18.6916 29.7708 18.9728L18.9728 29.7708Z" fill="#F8F8F8"/>
<g clip-path="url(#clip0_10352_37552)">
<circle cx="21" cy="21" r="7.3125" fill="#D1D1D1"/>
<path d="M21.0001 28.3126C25.0387 28.3126 28.3126 25.0386 28.3126 21.0001C28.3126 19.7606 28.0043 18.5932 27.4601 17.5703C22.7002 18.9484 18.9484 22.7001 17.5703 27.46C18.5932 28.0042 19.7607 28.3126 21.0001 28.3126Z" fill="#C4C4C4"/>
</g>
<path d="M26.4444 16.1181C25.1498 14.9566 23.4387 14.25 21.5625 14.25C17.5239 14.25 14.25 17.5239 14.25 21.5625C14.25 23.4387 14.9566 25.1498 16.1181 26.4444C14.6261 25.1056 13.6875 23.1624 13.6875 21C13.6875 16.9614 16.9614 13.6875 21 13.6875C23.1624 13.6875 25.1056 14.6261 26.4444 16.1181Z" fill="#ADADAD"/>
<defs>
<clipPath id="clip0_10352_37552">
<rect x="13.6875" y="13.6875" width="14.625" height="14.625" rx="7.3125" fill="white"/>
</clipPath>
</defs>
</svg>

<svg width="32" height="32" fill="none" xmlns="http://www.w3.org/2000/svg"><path d="M2 11a9 9 0 1 1 18 0 9 9 0 0 1-18 0Z" fill="#F7931A"/><path d="M15.044 9.886c.176-1.179-.722-1.813-1.95-2.236l.4-1.597-.973-.242-.388 1.555c-.255-.064-.518-.123-.78-.183l.392-1.566-.972-.242-.398 1.597c-.212-.048-.42-.096-.621-.146V6.82l-1.34-.335-.26 1.038s.723.166.707.176c.394.098.465.359.453.566l-.453 1.82a.87.87 0 0 1 .101.031l-.103-.025-.635 2.55c-.049.119-.17.298-.447.23.01.014-.706-.176-.706-.176l-.483 1.113 1.266.315.692.179-.402 1.615.972.242.398-1.597c.265.071.523.138.775.2l-.397 1.591.972.242.402-1.612c1.658.314 2.905.188 3.43-1.312.423-1.207-.021-1.904-.894-2.358.636-.146 1.114-.564 1.242-1.428Zm-2.222 3.115c-.3 1.208-2.333.555-2.992.391l.534-2.14c.66.165 2.772.49 2.458 1.75Zm.3-3.132c-.273 1.098-1.965.54-2.513.403l.483-1.94c.549.136 2.317.391 2.03 1.537Z" fill="#fff"/><circle cx="21" cy="21" r="9" fill="#DFDFDF"/><path d="M26.738 14.066a9.028 9.028 0 0 0-1.251-.87l-12.29 12.29c.254.443.545.861.87 1.252l12.671-12.672ZM16.343 28.703a9.039 9.039 0 0 1-1.774-1.407l12.727-12.727a9.039 9.039 0 0 1 1.407 1.774l-12.36 12.36ZM18.973 29.77a8.976 8.976 0 0 1-.828-.232l11.393-11.393c.09.27.168.547.233.828L18.973 29.77Z" fill="#F8F8F8"/><g clip-path="url(#a)"><circle cx="21" cy="21" r="7.313" fill="#D1D1D1"/><path d="M21 28.313a7.313 7.313 0 0 0 6.46-10.743 14.53 14.53 0 0 0-9.89 9.89 7.28 7.28 0 0 0 3.43.853Z" fill="#C4C4C4"/></g><path d="M26.444 16.118a7.312 7.312 0 0 0-10.326 10.326 7.312 7.312 0 1 1 10.326-10.326Z" fill="#ADADAD"/><defs><clipPath id="a"><rect x="13.688" y="13.688" width="14.625" height="14.625" rx="7.313" fill="#fff"/></clipPath></defs></svg>
